assets/symbols/mulberry/ceiling_light.svg

<svg height="850.394" viewBox="0 0 850.394 850.394" width="850.394" xmlns="http://www.w3.org/2000/svg"><path d="m754.07 111.93v623.62l-15 5.63-118.74-137.64h-.14v-359.25h.83l119.21-138.18z" fill="#fff5b4"/><path d="m423.16 196.13h-35.52l-13.06 46.76h-148.69v.69l-118.59-137.44 4.38-4.38 312.19-.09h305.84l10.52 4.44-119.21 138.18h-.83v-1.4h-147.59l-13.06-46.76z" fill="#fff"/><path d="m620.33 603.54 118.74 137.64-13.3 4.98-302.73.09h-303.13l-10.1-8.08 116.08-134.54h394.3v-.09z" fill="#f6cc4b"/><path d="m225.89 243.58v-.69h148.69l-9.31 33.34h116.64l-9.311-33.34h147.591v360.74h-43.63v-225.17h-116.46v225.17h-234.21zm152.17 237.14v-103.84h-116.45v103.84z" fill="#fff5b4"/><path d="m576.56 598.84v4.79h-116.46v-225.17h116.46z" fill="#9c5c25"/><path d="m472.6 242.89 9.31 33.34h-116.64l9.31-33.34zm-49.44-46.76h36.38l13.06 46.76h-98.02l13.06-46.76z" fill="#8c469b"/><path d="m225.89 243.58v360.05l-116.08 134.54-15.97-12.78v-605.79l13.46-13.46z" fill="#fff5b4"/><g fill="none"><g stroke="#231f20"><path d="m472.6 242.89h147.59v360.74h-394.3v-360.74h148.69" stroke-width="21"/><path d="m620.33 603.54 118.74 137.64 4.3 4.98h-17.6l-302.73.09h-320.2l6.97-8.08 116.08-134.54m.69-359.25-.69-.8-118.59-137.44-3.77-4.38h8.15l312.19-.09h320.19l-3.83 4.44-119.21 138.18m-527.18-150.83v661.09m660.23-661.27v661.1" stroke-width="21"/><path d="m378.06 421.27v59.45h-116.45v-103.84h116.45z" stroke-width="14"/><path d="m460.1 598.84v-220.38h116.46v220.38" stroke-width="21"/><path d="m319.79 378.46v96.71m0-53.9h58.27" stroke-width="14"/><path d="m423.16 143.3v52.83m-48.58 46.76-9.31 33.34h116.64l-9.31-33.34-13.06-46.76h-71.9z" stroke-width="21"/></g><path d="m0 0h850.394v850.394h-850.394z"/><path d="m212.379 143.313 138.878 50.106m-30.746-57 31.575 57.468-61.07 24.032" stroke="#000" stroke-linecap="round" stroke-linejoin="round" stroke-width="14"/></g></svg>

<svg xmlns="http://www.w3.org/2000/svg" width="850.394" height="850.394" viewBox="0 0 850.394 850.394" overflow="visible"><path fill="#fff5b4" d="M754.07 111.93v623.62l-15 5.63-118.74-137.64h-.14V244.29h.83l119.21-138.18z"/><path fill="#fff" d="M423.16 196.13h-35.52l-13.06 46.76H225.89v.69L107.3 106.14l4.38-4.38 312.19-.09h305.84l10.52 4.44-119.21 138.18h-.83v-1.4H472.6l-13.06-46.76z"/><path fill="#f6cc4b" d="M620.33 603.54l118.74 137.64-13.3 4.98-302.73.09H119.91l-10.1-8.08 116.08-134.54h394.3v-.09z"/><path d="M225.89 243.58v-.69h148.69l-9.31 33.34h116.64l-9.311-33.34H620.19V603.63h-43.63V378.46H460.1v225.17H225.89V243.58zm152.17 237.14V376.88H261.61v103.84h116.45z" fill="#fff5b4"/><path fill="#9c5c25" d="M576.56 598.84v4.79H460.1V378.46h116.46z"/><path fill="#8c469b" d="M472.6 242.89l9.31 33.34H365.27l9.31-33.34zM423.16 196.13h36.38l13.06 46.76h-98.02l13.06-46.76z"/><path fill="#fff5b4" d="M225.89 243.58v360.05L109.81 738.17l-15.97-12.78V119.6l13.46-13.46z"/><g fill="none" stroke="#231f20"><path stroke-width="21" d="M472.6 242.89h147.59V603.63h-394.3V242.89h148.69"/><path stroke-width="21" d="M620.33 603.54l118.74 137.64 4.3 4.98h-17.6l-302.73.09h-320.2l6.97-8.08 116.08-134.54M226.58 244.38l-.69-.8L107.3 106.14l-3.77-4.38h8.15l312.19-.09h320.19l-3.83 4.44-119.21 138.18M93.84 93.46V754.55M754.07 93.28v661.1"/><path stroke-width="14" d="M378.06 421.27v59.45H261.61V376.88h116.45z"/><path stroke-width="21" d="M460.1 598.84V378.46h116.46v220.38"/><path stroke-width="14" d="M319.79 378.46V475.17M319.79 421.27h58.27"/><path stroke-width="21" d="M423.16 143.3v52.83M374.58 242.89l-9.31 33.34h116.64l-9.31-33.34-13.06-46.76h-71.9z"/></g><path fill="none" d="M0 0h850.394v850.394H0z"/><path fill="none" stroke="#000" stroke-width="14" stroke-linecap="round" stroke-linejoin="round" d="M212.379 143.313l138.878 50.106M320.511 136.419l31.575 57.468-61.07 24.032"/></svg>
